X:205
%%etbk:tnset id:148,pos:1,rep:3
%%etbk:site1 http://thesession.org/tunes/234
%%etbk:color #ffffcc
%%etbk:pldat 2013-05-09T15:44,2013-05-07T18:40,2013-05-02T17:57,2013-05-01T17:44
T: Farrel O'Gara's
Z: Piano Box Version by Martin Fleischmann
H: Created 2013-02-19 /  Last Modified 2013-02-19
R: reel
M: 4/4
L: 1/8
K: Dmaj
|: "D"!1!A,!2!D!2!D{F}D !1!A,!2!D!3!F!4!A | !5!B!3!F!4!A!3!F "A"!1!E2!2!A!3!c | "G"!4!d!2!B{d}B!1!A !2!B!4!d!1!A!3!F | "A"!4!GEFD !2!E{G}E!1!D!2!B, |
"D"!1!A,2 !2!DD !1!A,!2!D!3!F!4!A | !5!B!3!F!4!A!3!F "A"!1!E2!2!A!3!c | "G"!4!d!2!B{d}B!1!A !2!B!4!d!1!A!3!F | "A"!4!GFEG "D"!3!F!1!DD2 :|
"D"!5!f2!3!d!1!d !3!f!1!d!4!g!2!e | !3!fdgf !2!e!1!d!2!B!3!c | "G"!4!d!2!B{d}B!1!A !2!B!3!c!1!d!2!e | "D"!3!f!1!d (3ddd "A"!2!e!4!g!3!g!4!g |
"D"!3!f!1!d !3!(3d!2!d!1!d !3!f!1!d!4!g!2!e | !3!fdgf !2!e!1!d!2!B!3!c | "G"!4!d!2!B{d}B!1!A !2!B!4!d!1!A!3!F | "A"!4!GFEG "D"!3!F!1!DD2 |
"D"!5!f2!3!d!1!d !3!f!1!d!4!g!2!e | !3!fdgf !2!e!1!d!2!B!3!c | "G"!4!d!2!B{d}B!1!A !2!B!3!c!1!d!2!e | "D"!3!f2af "A"!4!gfeg |
"D"!3!f2!5!af !2!e!1!d!2!B!3!c | "G"!4!d2!5!f!4!d !2!B!1!A!2!F!4!A | "D"!1!A,2 !2!DD !1!A,!2!D!3!F!4!A | "A"!5!B!3!F!4!A!3!F "D"!1!D4 ||
|"var Part B bar 2" fd (3ddd edBc |"var Part B bar 3" fagf e3d  |






